en/_assets/horizontal-ellipsis.svg

<svg width="17" height="8" viewBox="0 0 17 8" fill="none" xmlns="http://www.w3.org/2000/svg">
<path fill-rule="evenodd" clip-rule="evenodd" d="M0.282227 2C0.282227 0.894933 1.20011 0 2.33351 0C3.46691 0 4.38479 0.894933 4.38479 2C4.38479 3.10507 3.46691 4 2.33351 4C1.20011 4 0.282227 3.10507 0.282227 2ZM8.48729 0C7.35389 0 6.43601 0.894933 6.43601 2C6.43601 3.10507 7.35389 4 8.48729 4C9.62069 4 10.5386 3.10507 10.5386 2C10.5386 0.894933 9.62069 0 8.48729 0ZM14.6412 0C13.5078 0 12.5899 0.894933 12.5899 2C12.5899 3.10507 13.5078 4 14.6412 4C15.7746 4 16.6925 3.10507 16.6925 2C16.6925 0.894933 15.7746 0 14.6412 0Z" fill="currentColor"/>
</svg>

<svg xmlns="http://www.w3.org/2000/svg" width="17" height="8" fill="none"><path fill="currentColor" fill-rule="evenodd" d="M.282 2c0-1.105.918-2 2.052-2 1.133 0 2.05.895 2.05 2s-.917 2-2.05 2C1.2 4 .282 3.105.282 2Zm8.205-2C7.354 0 6.436.895 6.436 2s.918 2 2.051 2c1.134 0 2.052-.895 2.052-2S9.62 0 8.487 0Zm6.154 0c-1.133 0-2.051.895-2.051 2s.918 2 2.051 2c1.134 0 2.051-.895 2.051-2s-.917-2-2.05-2Z" clip-rule="evenodd"/></svg>
